X:1
T:Title
%%score 1 2
L:1/8
Q:1/4=103
M:4/4
K:Ab
V:1 treble nm="Grand Piano, Soprano"
V:2 bass nm="Choir Pad, Epimel, J. Howard Entwisle"
V:1
 [Ec]3 [Ee] [Ed][Ec] [DB]>[Ec] | [CA]4 [CE]4 | [DF]3 [DA] [CE]2 [EA]2 | [GB]6 z2 | %4
w: By~J.~Howard~Entwisle,~1897 * * * * *||||
 [Ac]3 [Ae] [Ed][Ec][DB][CA] | [DA]4 [DF]4 | [CE]3 [CA] [DB]2 [Ec]2 | [CA]6 z2 | %8
w: ||||
 [Ec]2 [Ec]>[Ed] [Ae]3 [Ac] | [EA]2 [Ac]2 [Ac] [GB]3 | [Bd]3 [Bd] [Bd][Ac] [GB]2 | [Ac]6 z2 | %12
w: ||||
 [Ee]3 [Ed] [Ec][DB] [CA]>E | [EG]4 .[DF]4 | [CE]3 [CA] [DB]2 [Ec]2 | [CA]8 |] %16
w: ||||
V:2
 A,3 [A,C] [A,B,]A, [E,G,]>[E,G,] | [A,,A,]4 [A,,A,]4 | [D,A,]3 [F,A,] A,2 [A,C]2 | [E,E]6 z2 | %4
 [A,E]3 [A,C] [A,B,]A,[A,,E,][A,,E,] | [D,F,]4 [D,A,]4 | [E,A,]3 [E,A,] [E,G,]2 [E,G,]2 | %7
 [A,,A,]6 z2 | A,2 A,>[A,B,] [A,C]3 [A,E] | [CE]2 [A,E]2 [E,E] [E,E]3 | %10
 [E,E]3 [E,E] [E,E]2 [E,E]2 | [A,E]6 z2 | [A,C]3 [A,B,] [A,,A,][A,,E,] [A,,E,]>[C,A,] | %13
 [D,A,]4 .[D,A,]4 | [E,A,]3 [E,A,] [E,G,]2 [E,G,]2 | [A,,A,]8 |] %16

